!!!!SEGMENT:05Chidorikansyu_c.krn
!!!OTL: 千鳥換手
!!!OPR:Eiga Banso Kyokusyu,jidai-geki,zenpen
!!!YOY:1929
!!!ONB:Kakutou
**kern
*clefG2
*C:
*M2/4
=1
16r
16gg
8ff#
16r
16gg
8ff#
=2
16ff#LL
16ff#J
8ff#J
8ff#L
8ff#J
=3
8ff#L
8ff#J
16ggLL
16ff#
16ee
16ccnJJ
=4
16bLL
16aJJ
16r
16a
16bLL
16b
16b
16bJJ
=5
16bLL
16b
16b
16bJJ
16c#LL
16f#
16f#
16f#JJ
=6
16f#LL
16f#
16f#
16f#JJ
16f#LL
16b
16b
16bJJ
=7
16bLL
16b
16b
16bJJ
16c#LL
16f#
16f#
16f#JJ
=8
16f#LL
16f#
16f#
16f#JJ
16aLL
16a
16a
16aJJ
=9
*M5/8
16bLL
16b
16b
16bJJ
16bLL
16b
16b
16bJJ
16bLL
16bJJ
=10
*M2/4
16eeLL
16bb
16bb
16bbJJ
16bbLL
16bb
16bb
16bbJJ
=11
16bLL
16ff#
16ff#
16ff#JJ
16ff#LL
16ff#
16ff#
16ff#JJ
=12
16eeLL
16bb
16bb
16bbJJ
16bbLL
16bb
16bb
16bbJJ
=13
16bLL
16ff#
16ff#
16ff#JJ
16ff#LL
16ff#
16ff#
16ff#JJ
=14
16bbLL
16bb
16ff#
16ff#JJ
16bbLL
16bb
16ff#
16ff#JJ
=15
16aaLL
16aa
16ee
16eeJJ
16ff#LL
16ff#
16b
16bJJ
=16
16eLL
16ee
16ee
16gJJ
8eeL
16ffnL
16ffJJ
=17
16ffnLL
16ee
16ee
16ccnJJ
8b
8r
==
*-
!!!ENC: Yukiko Yoden
!!!END: 2023/06/11
